X: 230
T: Liusanr tuiche
%%abc-version 2.0
%%abcx-abcm2ps-target-version 5.9.1 (29 Sep 2008)
%%abc-creator hum2abc beta
%%abcx-conversion-date 2013/10/02 07:52:29
%%abc-edited-by Helmut Schaffrath
%%humdrum-veritas 446910247
%%humdrum-veritas-data 488247152
%%continueall 1
%%barnumbers 0
L: 1/8
M: 3/4
K: Bb
z d f f/ g/ [I:setbarnb 1]| 
b> gb2 | 
ad'2c' | 
d'> c' g b | 
z c' a a/ c'/ | 
b a g f | 
g a g fd2 | 
d'> a g g/ b/d2 | 
[M:2/4]f g/ f/d2 | 
b b/ a/ g/ a/ g/ f/ | 
g g/ b/d2 | 
f a g g/ f/ | 
g g/ b/d2 | 
b b/ a/ g/ a/ g/ f/ | 
g g/ b/d2 | 
[M:3/4]f> f d fz2 | 
[M:2/4]d'> c'd'2 | 
d' c'b2 | 
a d' d' a | 
d'> a d'3/ a/ | 
g g/ f< d f/ | 
g a/ g/f4 |]  



